X: 1
T:Hughie Travers
M:6/8
L:1/8
Q:80
C:Arr. by T. Tully
S:Jig
K:HP
|: f|
{g}ec{d}Bc{e}c{G}c|
{g}ec{d}AB{e}B{G}B|
{g}A{d}ce"flick"a3|  !
fec{g}BAf{g}ec{d}Bc{e}c{G}c|
{g}ec{d}AB{e}B{G}B|
{g}A{d}ce"flick"a3|  !
fec{G}A2:| |:
B|
{g}ce{A}e{g}fAe|
aAg{a}fea|  !
{g}ce{A}e"flick"a3|
fec{g}BAB{g}ce{A}e{g}fAe|
aAg{a}fea|  !
{g}ce{A}e"flick"a3|
fec{G}A2:|
